X: 5950
T: Campbell River
R: jig
M: 6/8
K: Bminor
|:B2 c|d3 cBc|BFE DD/E/F|DFA B>cd|cA^G A2 c|
dfd cec|B>FE D2 F|BB/c/d cB^A|B3:|
|:FBc|d2 F BB/c/d|ecA AA/B/c|dcd B>cd|e3 cde|
fed BFE|DF/E/D DEF|B>cd cB^A|B3:|

